svg/crypto/tether_USDT_fill.svg

<?xml version="1.0" encoding="UTF-8"?>
<svg width="24px" height="24px" viewBox="0 0 24 24" version="1.1" xmlns="http://www.w3.org/2000/svg" xmlns:xlink="http://www.w3.org/1999/xlink">
    <title>tether_USDT_fill</title>
    <g id="页面-1" stroke="none" stroke-width="1" fill="none" fill-rule="evenodd">
        <g id="Business" transform="translate(-528.000000, -432.000000)" fill-rule="nonzero">
            <g id="tether_USDT_fill" transform="translate(528.000000, 432.000000)">
                <path d="M24,0 L24,24 L0,24 L0,0 L24,0 Z M12.5934901,23.257841 L12.5819402,23.2595131 L12.5108777,23.2950439 L12.4918791,23.2987469 L12.4918791,23.2987469 L12.4767152,23.2950439 L12.4056548,23.2595131 C12.3958229,23.2563662 12.3870493,23.2590235 12.3821421,23.2649074 L12.3780323,23.275831 L12.360941,23.7031097 L12.3658947,23.7234994 L12.3769048,23.7357139 L12.4804777,23.8096931 L12.4953491,23.8136134 L12.4953491,23.8136134 L12.5071152,23.8096931 L12.6106902,23.7357139 L12.6232938,23.7196733 L12.6232938,23.7196733 L12.6266527,23.7031097 L12.609561,23.275831 C12.6075724,23.2657013 12.6010112,23.2592993 12.5934901,23.257841 L12.5934901,23.257841 Z M12.8583906,23.1452862 L12.8445485,23.1473072 L12.6598443,23.2396597 L12.6498822,23.2499052 L12.6498822,23.2499052 L12.6471943,23.2611114 L12.6650943,23.6906389 L12.6699349,23.7034178 L12.6699349,23.7034178 L12.678386,23.7104931 L12.8793402,23.8032389 C12.8914285,23.8068999 12.9022333,23.8029875 12.9078286,23.7952264 L12.9118235,23.7811639 L12.8776777,23.1665331 C12.8752882,23.1545897 12.8674102,23.1470016 12.8583906,23.1452862 L12.8583906,23.1452862 Z M12.1430473,23.1473072 C12.1332178,23.1423925 12.1221763,23.1452606 12.1156365,23.1525954 L12.1099173,23.1665331 L12.0757714,23.7811639 C12.0751323,23.7926639 12.0828099,23.8018602 12.0926481,23.8045676 L12.108256,23.8032389 L12.3092106,23.7104931 L12.3186497,23.7024347 L12.3186497,23.7024347 L12.3225043,23.6906389 L12.340401,23.2611114 L12.337245,23.2485176 L12.337245,23.2485176 L12.3277531,23.2396597 L12.1430473,23.1473072 Z" id="MingCute" fill-rule="nonzero"></path>
                <path d="M17.4196,3 C18.1373,3 18.8,3.38457 19.1561,4.00772 L22.4892,9.8407 C22.9367,10.6238 22.8047,11.6095 22.1669,12.2472 L12.8838,21.5303 C12.3957,22.0185 11.6042,22.0185 11.116,21.5303 L1.8329,12.2472 C1.19516,11.6094 1.06316,10.6238 1.51063,9.8407 L4.84376,4.00772 C5.19985,3.38457 5.86254,3 6.58025,3 L17.4196,3 Z M14.9999,6 L8.99994,6 C8.44765,6 7.99994,6.44772 7.99994,7 C7.99994,7.51283143 8.38597566,7.93550653 8.8833179,7.9932722 L8.99994,8 L10.9999,8 L10.9999,9.54505 C10.2415,9.61466 9.55251,9.76247 8.99595,9.97118 C8.60122,10.1192 8.24705,10.3075 7.98258,10.542 C7.71869,10.776 7.49994,11.0986 7.49994,11.5 C7.49994,11.9014 7.71869,12.224 7.98258,12.458 C8.24705,12.6925 8.60122,12.8808 8.99595,13.0288 C9.58975,13.2515 10.3343,13.4049 11.1531,13.4679 C11.0755,13.59118 11.024012,13.732572 11.0065208,13.8843448 L10.9999,14 L10.9999,16 C10.9999,16.5523 11.4477,17 11.9999,17 C12.51275,17 12.9354092,16.613973 12.9931725,16.1166239 L12.9999,16 L12.9999,14 C12.9999,13.8044 12.9438,13.622 12.8468,13.4679 C13.6655,13.4049 14.4101,13.2515 15.0039,13.0288 C15.3987,12.8808 15.7528,12.6925 16.0173,12.458 C16.2812,12.224 16.4999,11.9014 16.4999,11.5 C16.4999,11.0986 16.2812,10.776 16.0173,10.542 C15.7528,10.3075 15.3987,10.1192 15.0039,9.97118 C14.5269,9.79228571 13.9525531,9.65813429 13.3205327,9.57962017 L12.9999,9.54505 L12.9999,8 L14.9999,8 C15.5522,8 15.9999,7.55228 15.9999,7 C15.9999,6.48716857 15.613873,6.06449347 15.1165239,6.0067278 L14.9999,6 Z M12.9987,10.5496 C13.6455,10.6153 14.2131,10.7426 14.6528,10.9075 C14.9819,11.0309 15.2135,11.1658 15.3539,11.2903 C15.4478333,11.3735667 15.4814111,11.4333222 15.4933593,11.4677 L15.4999,11.5 L15.4999,11.5 L15.4933593,11.5323 C15.4814111,11.5666778 15.4478333,11.6264333 15.3539,11.7097 C15.2135,11.8342 14.9819,11.9691 14.6528,12.0925 C13.9982,12.338 13.0604,12.5 11.9999,12.5 C10.9395,12.5 10.0016,12.338 9.34707,12.0925 C9.01795,11.9691 8.78633,11.8342 8.64598,11.7097 C8.55202667,11.6264333 8.51843778,11.5666778 8.50648444,11.5323 L8.49994,11.5 L8.49994,11.5 C8.49994,11.4872 8.50505,11.4152 8.64598,11.2903 C8.78633,11.1658 9.01795,11.0309 9.34707,10.9075 C9.78682,10.7426 10.3544,10.6153 11.0011,10.5496 C11.027,11.0788 11.4643,11.5 11.9999,11.5 C12.5356,11.5 12.9729,11.0788 12.9987,10.5496 Z" id="形状" fill="#09244B"></path>
            </g>
        </g>
    </g>
</svg>

<svg xmlns="http://www.w3.org/2000/svg" width="24" height="24"><g fill="none" fill-rule="nonzero"><path d="M24 0v24H0V0h24ZM12.593 23.258l-.011.002-.071.035-.02.004-.014-.004-.071-.035c-.01-.004-.019-.001-.024.005l-.004.01-.017.428.005.02.01.013.104.074.015.004.012-.004.104-.074.012-.016.004-.017-.017-.427c-.002-.01-.009-.017-.017-.018Zm.265-.113-.013.002-.185.093-.01.01-.003.011.018.43.005.012.008.007.201.093c.012.004.023 0 .029-.008l.004-.014-.034-.614c-.003-.012-.01-.02-.02-.022Zm-.715.002a.023.023 0 0 0-.027.006l-.006.014-.034.614c0 .012.007.02.017.024l.015-.002.201-.093.01-.008.004-.011.017-.43-.003-.012-.01-.01-.184-.092Z"/><path fill="#09244B" d="M17.42 3a2 2 0 0 1 1.736 1.008L22.49 9.84a2 2 0 0 1-.322 2.406l-9.283 9.283a1.25 1.25 0 0 1-1.768 0l-9.283-9.283a2 2 0 0 1-.322-2.406l3.333-5.833A2 2 0 0 1 6.58 3h10.84ZM15 6H9a1 1 0 0 0-.117 1.993L9 8h2v1.545c-.758.07-1.447.217-2.004.426-.395.148-.749.336-1.013.571-.264.234-.483.557-.483.958 0 .401.219.724.483.958.264.235.618.423 1.013.57.594.223 1.338.377 2.157.44a.994.994 0 0 0-.146.416L11 14v2a1 1 0 0 0 1.993.117L13 16v-2a.995.995 0 0 0-.153-.532c.819-.063 1.563-.216 2.157-.44.395-.147.749-.335 1.013-.57.264-.234.483-.557.483-.958 0-.401-.219-.724-.483-.958-.264-.235-.618-.423-1.013-.57a7.494 7.494 0 0 0-1.683-.392L13 9.545V8h2a1 1 0 0 0 .117-1.993L15 6Zm-2.001 4.55c.646.065 1.214.193 1.654.357.329.124.56.259.7.383a.46.46 0 0 1 .14.178l.007.032-.007.032a.46.46 0 0 1-.14.178c-.14.124-.371.26-.7.382-.655.246-1.593.408-2.653.408s-1.998-.162-2.653-.408c-.329-.123-.56-.258-.701-.382a.46.46 0 0 1-.14-.178L8.5 11.5c0-.013.005-.085.146-.21.14-.124.372-.26.701-.382.44-.165 1.007-.293 1.654-.358a1 1 0 0 0 1.998 0Z"/></g></svg>
